X: 7
T: Anthoni usque limina
N: Derived from Bus2004-Anthoni_usque_limina.krn
C: Antoine Busnoys
%%abc-version 2.0
%%abcx-abcm2ps-target-version 5.9.1 (29 Sep 2008)
%%abc-creator hum2abc beta
%%abcx-conversion-date 2019/02/16 20:26:06
%%abc-edited-by Jesse Rodin
%%abc-edited-by Jesse Rodin 2007; Megan K. Eagen 2013/04/30
%%abcx-initial-encoding-date 2013/04/30/
%%humdrum-veritas 1999743764
%%humdrum-veritas-data 1122877740
%%linebreak <none>
%%barnumbers 0
L: 1/4
M: 3/1
Q: 1/2=120
V: 1 clef=treble
V: 2 clef=treble
V: 3 clef=treble-8
V: 4 clef=treble-8
V: 5 clef=bass
K: F
[V:1] G6A2B3A | 
[V:2] G6F2_E4 | 
[V:3] g4e2d2g4 | 
[V:4] z12 | 
[V:5] z12 | 
[V:1] F3_EF2G4E2 | 
[V:2] D2D4B,2C4 | 
[V:3] a6b4ag | 
[V:4] z12 | 
[V:5] z12 | 
[V:1] D6_E3DC2 | 
[V:2] D3CB,2G,2C4 | 
[V:3] f3ef2g4e2 | 
[V:4] z12 | 
[V:5] z12 | 
[V:1] =B,12 | 
[V:2] G,12 | 
[V:3] d12 | 
[V:4] z12 | 
[V:5] z12 | 
[V:1] z12 | 
[V:2] G3FD2_E4DC | 
[V:3] z12 | 
[V:4] z12 | 
[V:5] z12 | 
[V:1] z12 | 
[V:2] B,3A,B,2C4A,2 | 
[V:3] g3fd2_e4dc | 
[V:4] z12 | 
[V:5] z12 | 
[V:1] G3FD2_E4DC | 
[V:2] G,4z4C4 | 
[V:3] B3AB2c4A2 | 
[V:4] z12 | 
[V:5] z12 | 
[V:1] B,3A,B,2C4A,2 | 
[V:2] D6C2E2F2 | 
[V:3] G4z4c4 | 
[V:4] z12 | 
[V:5] z12 | 
[V:1] G,2B,3A,G,2A,4 | 
[V:2] G2FED2G4^F2 | 
[V:3] d4G2d4c2 | 
[V:4] z12 | 
[V:5] z12 | 
[V:1] G,8z4 | 
[V:2] G8z4 | 
[V:3] d6c2B4- | 
[V:4] d12 | 
[V:5] G,,12- | 
[V:1] G4F2G2A4 | 
[V:2] z12 | 
[V:3] B4A6G2 | 
[V:4] d12 | 
[V:5] G,,4D,8 | 
[V:1] B4A2A4G2 | 
[V:2] z12 | 
[V:3] G4A4B4 | 
[V:4] d12 | 
[V:5] G,4F,4G,4 | 
[V:1] A6B4AG | 
[V:2] z12 | 
[V:3] A6G2B2c2 | 
[V:4] d12 | 
[V:5] D,3E,F,2G,4A,2 | 
[V:1] F4z4A4 | 
[V:2] z12 | 
[V:3] d2cBA2G2A4 | 
[V:4] d12 | 
[V:5] B,2A,G,F,2G,4^F,2 | 
[V:1] B3GA2G4^F2 | 
[V:2] z12 | 
[V:3] z2G2F2B2A4 | 
[V:4] d12 | 
[V:5] G,4z2G,2D,3C, | 
[V:1] G2D3CB,2A,4 | 
[V:2] z12 | 
[V:3] G4z2g4^f2 | 
[V:4] d12 | 
[V:5] B,,2G,,2B,,3C,D,4 | 
[V:1] G,3A,B,3CD3E | 
[V:2] z12 | 
[V:3] g6b4ag | 
[V:4] d12 | 
[V:5] G,,4z4G,,4 | 
[V:1] F2D3CA,2B,4 | 
[V:2] z12 | 
[V:3] f2b3aa4g2 | 
[V:4] d12 | 
[V:5] D,4F,4G,4 | 
[V:1] A,4z2D4E2 | 
[V:2] z12 | 
[V:3] a8b4 | 
[V:4] z12 | 
[V:5] D,4F,4G,4 | 
[V:1] F2A3GF2E4 | 
[V:2] z12 | 
[V:3] a2f3ga3ge2 | 
[V:4] z12 | 
[V:5] D,8C,4 | 
[V:1] D8z4 | 
[V:2] z12 | 
[V:3] f2d4g4^f2 | 
[V:4] z12 | 
[V:5] D,4B,,2G,,2A,,4 | 
[V:1] D4C2D4F2 | 
[V:2] z12 | 
[V:3] g4z4d4 | 
[V:4] z12 | 
[V:5] G,,4A,,2G,,2B,,4 | 
[V:1] E2D2F4G2A2- | 
[V:2] z12 | 
[V:3] c2d4f2e2d2 | 
[V:4] z12 | 
[V:5] z2B,,3C,D,2E,2F,2 | 
[V:1] AFA2G2F2D4 | 
[V:2] z12 | 
[V:3] f4g2a3fa2 | 
[V:4] z12 | 
[V:5] D,4E,2F,3D,F,G, | 
[V:1] E2F3ED2C2D2- | 
[V:2] z12 | 
[V:3] g2f2d4e2f2- | 
[V:4] z12 | 
[V:5] E,2D,4B,,2C,2B,,2 | 
[V:1] D2CB,A,2B,3CD2- | 
[V:2] z12 | 
[V:3] f2edc2d3ef2- | 
[V:4] z12 | 
[V:5] D,2E,2F,E,D,C,B,,3C, | 
[V:1] DEF4D4^C2 | 
[V:2] z12 | 
[V:3] fga4gfe4 | 
[V:4] z12 | 
[V:5] D,3E,F,2G,4A,2 | 
[V:1] D8z4 | 
[V:2] z12 | 
[V:3] d3cA2G2B4 | 
[V:4] d12 | 
[V:5] B,3A,F,2G,4F,E, | 
[V:1] A4B2A4F2 | 
[V:2] z12 | 
[V:3] A4z4a4 | 
[V:4] d12 | 
[V:5] F,2D,2G,2F,2D,4 | 
[V:1] G2A2D4z4 | 
[V:2] z12 | 
[V:3] b2a4f2g2a2 | 
[V:4] d12 | 
[V:5] z4D,4G,,2F,,2 | 
[V:1] F4B4A4 | 
[V:2] z12 | 
[V:3] d4z4f4 | 
[V:4] d12 | 
[V:5] B,,2B,,4A,,G,,F,,3E,, | 
[V:1] G4F4G3F | 
[V:2] z12 | 
[V:3] b4a4g4 | 
[V:4] d12 | 
[V:5] G,,4z2D,2B,,2G,,2 | 
[V:1] D2A2B3A/G/F2F2 | 
[V:2] z12 | 
[V:3] f4g3fd2a2 | 
[V:4] d12 | 
[V:5] D,3C,B,,G,,B,,C,D,3C, | 
[V:1] G2B2A4G2G2- | 
[V:2] z12 | 
[V:3] b3a/g/f2f2g2b2 | 
[V:4] d12 | 
[V:5] B,,G,,B,,C,D,4G,,4 | 
[V:1] G2F2G4F2D2- | 
[V:2] z12 | 
[V:3] a4g3fd3e | 
[V:4] d12 | 
[V:5] z4G,,4D,2B,,2- | 
[V:1] DCB,2A,2G,2B,4 | 
[V:2] z12 | 
[V:3] f3ga2b4ag | 
[V:4] d12 | 
[V:5] B,,A,,G,,2F,,2G,,3A,,B,,C, | 
[V:1] A,12 | 
[V:2] z12 | 
[V:3] f4z4f4 | 
[V:4] z12 | 
[V:5] D,8D,4 | 
[V:1] z4z4D4 | 
[V:2] z12 | 
[V:3] g4a4b4- | 
[V:4] z12 | 
[V:5] B,,2C,4A,,2G,,4 | 
[V:1] B,2C4A,2G,4 | 
[V:2] z12 | 
[V:3] b2g2a2c'2b4 | 
[V:4] z12 | 
[V:5] z4F,4G,3E, | 
[V:1] A,2G,2B,2C2D3C | 
[V:2] z12 | 
[V:3] a2b3ag2f2g2- | 
[V:4] z12 | 
[V:5] F,2G,4E,2D,2G,,2 | 
[V:1] D2E2F3EF2G2 | 
[V:2] z12 | 
[V:3] g2e2d2d4cB | 
[V:4] z12 | 
[V:5] B,,2C,2D,4z4 | 
[V:1] A2A3GFED4 | 
[V:2] z12 | 
[V:3] A4z4z4 | 
[V:4] z12 | 
[V:5] z4A,,4B,,4 | 
[V:1] z12 | 
[V:2] z12 | 
[V:3] A4B4c2d2- | 
[V:4] z12 | 
[V:5] C,2D,3C,B,,2A,,2B,,2- | 
[V:1] z12 | 
[V:2] z12 | 
[V:3] dcB2A2B3AG2 | 
[V:4] z12 | 
[V:5] B,,A,,G,,2F,,2G,,4B,,2 | 
[V:1] z12 | 
[V:2] z12 | 
[V:3] F2G4B2A2G2 | 
[V:4] z12 | 
[V:5] A,,2G,,2B,,4C,4 | 
[V:1] F4D2E2F4 | 
[V:2] z12 | 
[V:3] B8z4 | 
[V:4] d12 | 
[V:5] B,,12- | 
[V:1] B,6C2D4 | 
[V:2] z12 | 
[V:3] f4d2e2f4 | 
[V:4] d12 | 
[V:5] B,,12 | 
[V:1] G,8z2G,2 | 
[V:2] z12 | 
[V:3] B6c2d4 | 
[V:4] d12 | 
[V:5] z4z4G,,4 | 
[V:1] B,3CD3EF3G | 
[V:2] z12 | 
[V:3] G3AB3cd3e | 
[V:4] d12 | 
[V:5] G,,2G,,3A,,B,,3C,D,2- | 
[V:1] A2B4AG^F3E | 
[V:2] z12 | 
[V:3] f2g2d2cBA4 | 
[V:4] d12 | 
[V:5] D,2G,,2z2G,,2D,3C, | 
[V:1] G4z4z4 | 
[V:2] z12 | 
[V:3] z2G2B2A2B3c | 
[V:4] d12 | 
[V:5] B,,3A,,G,,2F,,2G,,2B,,2- | 
[V:1] z4z4A4 | 
[V:2] z12 | 
[V:3] d3cB2AGA4 | 
[V:4] d12 | 
[V:5] B,,C,D,4G,4^F,2 | 
[V:1] B6A2G2FE | 
[V:2] z12 | 
[V:3] G6A2B3c | 
[V:4] d12 | 
[V:5] G,12- | 
[V:1] D3CB,2A,G,A,4 | 
[V:2] z12 | 
[V:3] d3ef2g4^f2 | 
[V:4] d12 | 
[V:5] G,4D,8 | 
[V:1] G,12 ||  
[V:2] z12 ||  
[V:3] g12 ||  
[V:4] z12 ||  
[V:5] G,,12 ||  
[V:1]  [K:F] [K:clef=treble][M:2/1]G,8 | 
[V:2]  [K:F] [K:clef=treble][M:2/1]G8 | 
[V:3]  [K:F] [K:clef=treble-8][M:2/1]d8 | 
[V:4]  [K:F] [K:clef=treble-8][M:2/1]z8 | 
[V:5]  [K:F] [K:clef=bass][M:2/1]z8 | 
[V:1] G,4G,4 | 
[V:2] E4E4 | 
[V:3] g4g4 | 
[V:4] z8 | 
[V:5] z8 | 
[V:1] B,8 | 
[V:2] D6E2 | 
[V:3] f6g2 | 
[V:4] z8 | 
[V:5] z8 | 
[V:1] A,4G,4 | 
[V:2] F4G4- | 
[V:3] a4b4- | 
[V:4] z8 | 
[V:5] z8 | 
[V:1] B,4C4 | 
[V:2] G2F2E3D | 
[V:3] b2a2g2fe | 
[V:4] z8 | 
[V:5] z8 | 
[V:1] D6CB, | 
[V:2] D2F4G2 | 
[V:3] f2a3ge2 | 
[V:4] z8 | 
[V:5] z8 | 
[V:1] A,4G,4 | 
[V:2] A4B4- | 
[V:3] f4g2g2- | 
[V:4] z8 | 
[V:5] z8 | 
[V:1] B,8 | 
[V:2] B2A2G4- | 
[V:3] g2f2d4 | 
[V:4] z8 | 
[V:5] z8 | 
[V:1] C8 | 
[V:2] G2FGAGFE | 
[V:3] c2_e4dc | 
[V:4] z8 | 
[V:5] z8 | 
[V:1] G,8 | 
[V:2] D8 | 
[V:3] B8 | 
[V:4] z8 | 
[V:5] z8 | 
[V:1] z8 | 
[V:2] G4A2B2- | 
[V:3] z8 | 
[V:4] z8 | 
[V:5] z8 | 
[V:1] z8 | 
[V:2] BAG4F2 | 
[V:3] z8 | 
[V:4] z8 | 
[V:5] z8 | 
[V:1] G4A2B2- | 
[V:2] G2FEF2D2- | 
[V:3] z8 | 
[V:4] z8 | 
[V:5] z8 | 
[V:1] BAG4F2 | 
[V:2] DG,B,2A,4 | 
[V:3] z8 | 
[V:4] z8 | 
[V:5] z8 | 
[V:1] G2FEF2D2- | 
[V:2] G,4D2F2- | 
[V:3] g4a2b2- | 
[V:4] z8 | 
[V:5] z8 | 
[V:1] DG,B,2A,4 | 
[V:2] FED4C2 | 
[V:3] bag4f2 | 
[V:4] z8 | 
[V:5] z8 | 
[V:1] (3:2:5G,2B,3CD4E2 | 
[V:2] (3:2:5D4G2F3GA2 | 
[V:3] g2fef2d2- | 
[V:4] z8 | 
[V:5] z8 | 
[V:1] (3F2E2D2-(3D2C2B,2 | 
[V:2] (3:2:5B3AG2^F4E2 | 
[V:3] dGB2A4 | 
[V:4] z8 | 
[V:5] z8 | 
[V:1] D8- | 
[V:2] z8 | 
[V:3] G8- | 
[V:4] d8- | 
[V:5] G,8 | 
[V:1] D8 | 
[V:2] z8 | 
[V:3] G4B4- | 
[V:4] d8- | 
[V:5] G,4G,4 | 
[V:1] z4F4 | 
[V:2] z8 | 
[V:3] B4A4 | 
[V:4] d8 | 
[V:5] D,8 | 
[V:1] G4A4 | 
[V:2] z8 | 
[V:3] G4F4 | 
[V:4] d8- | 
[V:5] G,,4D,4 | 
[V:1] B4G4- | 
[V:2] z8 | 
[V:3] G4B4 | 
[V:4] d8- | 
[V:5] B,,6C,2 | 
[V:1] G2^F2F2E2 | 
[V:2] z8 | 
[V:3] A8 | 
[V:4] d8 | 
[V:5] D,4D,4 | 
[V:1] G6FE | 
[V:2] z8 | 
[V:3] G8 | 
[V:4] d8- | 
[V:5] z2G,,2B,,3C, | 
[V:1] F2D3CB,2 | 
[V:2] z8 | 
[V:3] z8 | 
[V:4] d8- | 
[V:5] D,2G,,2D,3E, | 
[V:1] A,2B,4A,B, | 
[V:2] z8 | 
[V:3] z8 | 
[V:4] d8 | 
[V:5] F,2G,4F,G, | 
[V:1] CB,A,G,A,4 | 
[V:2] z8 | 
[V:3] z4a4 | 
[V:4] d8- | 
[V:5] A,G,^F,E,F,4 | 
[V:1] z4G,4 | 
[V:2] z8 | 
[V:3] b2g3ab2 | 
[V:4] d8- | 
[V:5] G,2B,3A,G,2 | 
[V:1] A,4B,4 | 
[V:2] z8 | 
[V:3] c'bagf2g2 | 
[V:4] d8 | 
[V:5] F,4B,,4 | 
[V:1] A,2D4C2 | 
[V:2] z8 | 
[V:3] a2b3aa2- | 
[V:4] d8- | 
[V:5] z2B,,4F,2- | 
[V:1] A,4B,4 | 
[V:2] z8 | 
[V:3] a4g3f | 
[V:4] d8- | 
[V:5] F,E,F,2G,4 | 
[V:1] A,6B,2- | 
[V:2] z8 | 
[V:3] a4f4 | 
[V:4] d8 | 
[V:5] F,2D,6 | 
[V:1] B,CD3CA,2- | 
[V:2] z8 | 
[V:3] b4a4 | 
[V:4] d8- | 
[V:5] G,4F,3E, | 
[V:1] A,G,B,3A,F,2 | 
[V:2] z8 | 
[V:3] f4d4 | 
[V:4] d8- | 
[V:5] D,3C,B,,3A,, | 
[V:1] G,2B,2A,4 | 
[V:2] z8 | 
[V:3] z2g4f2 | 
[V:4] d8 | 
[V:5] G,,4D,4 | 
[V:1] G,4z4 | 
[V:2] z8 | 
[V:3] g2b2a4 | 
[V:4] z8 | 
[V:5] z2G,4F,2 | 
[V:1] z8 | 
[V:2] z8 | 
[V:3] g2d3cA2 | 
[V:4] z8 | 
[V:5] G,2B,2A,4 | 
[V:1] z8 | 
[V:2] z8 | 
[V:3] B2AGF4 | 
[V:4] z8 | 
[V:5] G,2D,3C,A,,2 | 
[V:1] z8 | 
[V:2] z8 | 
[V:3] G2B2c2d2- | 
[V:4] z8 | 
[V:5] B,,2A,,G,,F,,4 | 
[V:1] z8 | 
[V:2] z8 | 
[V:3] dcB2A4 | 
[V:4] z8 | 
[V:5] G,,2B,,3C,D,2- | 
[V:1] z8 | 
[V:2] z8 | 
[V:3] B2d4c2 | 
[V:4] z8 | 
[V:5] D,C,B,,2A,,4 | 
[V:1] z8 | 
[V:2] z8 | 
[V:3] B3AB2c2 | 
[V:4] z8 | 
[V:5] B,,2D,4C,2 | 
[V:1] z8 | 
[V:2] z8 | 
[V:3] d3cd2e2 | 
[V:4] z8 | 
[V:5] B,,3A,,B,,2C,2 | 
[V:1] z4G4 | 
[V:2] z8 | 
[V:3] f2ed^c3=B | 
[V:4] z8 | 
[V:5] D,2F,2E,4 | 
[V:1] F2A3GF2- | 
[V:2] z8 | 
[V:3] d8 | 
[V:4] z8 | 
[V:5] D,8 | 
[V:1] F2EDEDCB, | 
[V:2] z8 | 
[V:3] z8 | 
[V:4] z8 | 
[V:5] z4G,4 | 
[V:1] A,3B,C2D2- | 
[V:2] z8 | 
[V:3] z8 | 
[V:4] z8 | 
[V:5] F,2A,3G,F,2- | 
[V:1] DEF2GFED | 
[V:2] z8 | 
[V:3] z8 | 
[V:4] z8 | 
[V:5] F,2E,D,E,D,C,B,, | 
[V:1] C3DE2F2- | 
[V:2] z8 | 
[V:3] z8 | 
[V:4] z8 | 
[V:5] A,,3B,,C,2D,2- | 
[V:1] FGA2G3F | 
[V:2] z8 | 
[V:3] z8 | 
[V:4] z8 | 
[V:5] D,E,F,2G,F,E,D, | 
[V:1] EDD4^C2 | 
[V:2] z8 | 
[V:3] z4g4 | 
[V:4] z8 | 
[V:5] C,2D,2E,4 | 
[V:1] D3CB,2A,2 | 
[V:2] z8 | 
[V:3] f2b3ac'2- | 
[V:4] z8 | 
[V:5] D,4z4 | 
[V:1] C2B,2A,4 | 
[V:2] z8 | 
[V:3] c'bg4^f2 | 
[V:4] z8 | 
[V:5] z8 | 
[V:1] G,8 | 
[V:2] z8 | 
[V:3] g6fe | 
[V:4] d8- | 
[V:5] z4G,,4 | 
[V:1] z4F4 | 
[V:2] z8 | 
[V:3] f2d3cA2 | 
[V:4] d8- | 
[V:5] D,6C,2 | 
[V:1] G4A4 | 
[V:2] z8 | 
[V:3] B4A2F2 | 
[V:4] d8 | 
[V:5] B,,2G,,2D,4 | 
[V:1] B6G2 | 
[V:2] z8 | 
[V:3] G2B4c2 | 
[V:4] d8- | 
[V:5] G,,4G,4 | 
[V:1] A4B4- | 
[V:2] z8 | 
[V:3] A2d4g2- | 
[V:4] d8- | 
[V:5] F,4G,4 | 
[V:1] B2A2G4 | 
[V:2] z8 | 
[V:3] g2f2g2b2 | 
[V:4] d8 | 
[V:5] z4G,4 | 
[V:1] F8 | 
[V:2] z8 | 
[V:3] a2d3cB2 | 
[V:4] d8- | 
[V:5] D,6E,2 | 
[V:1] z8 | 
[V:2] z8 | 
[V:3] A2d6- | 
[V:4] d8- | 
[V:5] F,4B,,4- | 
[V:1] F8 | 
[V:2] z8 | 
[V:3] dcB2A4 | 
[V:4] d8 | 
[V:5] B,,2C,2D,4 | 
[V:1] G6FE | 
[V:2] z8 | 
[V:3] G8 | 
[V:4] d8- | 
[V:5] G,,2B,,4C,2 | 
[V:1] F2D3CA,2 | 
[V:2] z8 | 
[V:3] z4f4 | 
[V:4] d8- | 
[V:5] D,2B,,3C,D,2 | 
[V:1] B,4A,2F,2 | 
[V:2] z8 | 
[V:3] g4a4 | 
[V:4] d8 | 
[V:5] G,,4z2D,2 | 
[V:1] G,2B,4C2 | 
[V:2] z8 | 
[V:3] b6g2 | 
[V:4] d8- | 
[V:5] B,,3C,D,2E,2 | 
[V:1] A,4G,2D2- | 
[V:2] z8 | 
[V:3] a4b4- | 
[V:4] d8- | 
[V:5] F,4G,4- | 
[V:1] DCA,2B,4 | 
[V:2] z8 | 
[V:3] b2a2g4 | 
[V:4] d8 | 
[V:5] G,2F,2G,3F, | 
[V:1] A,6B,2- | 
[V:2] z8 | 
[V:3] f8 | 
[V:4] d8- | 
[V:5] D,3E,F,2D,2 | 
[V:1] B,2G,2F,4- | 
[V:2] z8 | 
[V:3] g4a4- | 
[V:4] d8- | 
[V:5] G,2B,2A,2D,2- | 
[V:1] F,2G,2A,2B,2 | 
[V:2] z8 | 
[V:3] a2g2f4 | 
[V:4] d8 | 
[V:5] D,2E,2F,3G, | 
[V:1] C4A,4 | 
[V:2] z8 | 
[V:3] e2a3ge2 | 
[V:4] z8 | 
[V:5] A,4z4 | 
[V:1] z8 | 
[V:2] z8 | 
[V:3] f4e4 | 
[V:4] z8 | 
[V:5] A,4G,2E,2 | 
[V:1] A4G2E2 | 
[V:2] z8 | 
[V:3] d2f2e4 | 
[V:4] z8 | 
[V:5] F,2z2z4 | 
[V:1] F4E4 | 
[V:2] z8 | 
[V:3] a4g2e2 | 
[V:4] z8 | 
[V:5] z8 | 
[V:1] z8 | 
[V:2] z8 | 
[V:3] f4e4 | 
[V:4] z8 | 
[V:5] A,4G,2E,2 | 
[V:1] A4G2E2 | 
[V:2] z8 | 
[V:3] z8 | 
[V:4] z8 | 
[V:5] F,2D,4C,2 | 
[V:1] F2D4C2 | 
[V:2] z8 | 
[V:3] a4g2e2 | 
[V:4] z8 | 
[V:5] z8 | 
[V:1] D2F2E4 | 
[V:2] z8 | 
[V:3] f2d2e2c2 | 
[V:4] z8 | 
[V:5] z4A,4 | 
[V:1] z4A4 | 
[V:2] z8 | 
[V:3] d2e2A4 | 
[V:4] z8 | 
[V:5] G,2E,2F,2D,2- | 
[V:1] G2E2F2D2 | 
[V:2] z8 | 
[V:3] z4a4 | 
[V:4] z8 | 
[V:5] D,2C,2D,2F,2 | 
[V:1] E2C2D2E2 | 
[V:2] z8 | 
[V:3] g2e2f2g2 | 
[V:4] z8 | 
[V:5] E,2z2z4 | 
[V:1] A,4z4 | 
[V:2] z8 | 
[V:3] e4f4 | 
[V:4] z8 | 
[V:5] z4A,4 | 
[V:1] E4z4 | 
[V:2] z8 | 
[V:3] z4a4 | 
[V:4] z8 | 
[V:5] G,2E,2F,2D,2- | 
[V:1] z4A4 | 
[V:2] z8 | 
[V:3] g2e2f2d2 | 
[V:4] z8 | 
[V:5] D,2C,2D,2F,2 | 
[V:1] G2E2F2D2- | 
[V:2] z8 | 
[V:3] e2c3BA2- | 
[V:4] z8 | 
[V:5] E,2A,3G,F,2 | 
[V:1] D2C2D2F2 | 
[V:2] z8 | 
[V:3] A2G2A3B | 
[V:4] z8 | 
[V:5] E,4D,4 | 
[V:1] E2F2G2A2- | 
[V:2] z8 | 
[V:3] c2d2e2f2- | 
[V:4] z8 | 
[V:5] z8 | 
[V:1] A2GFE4 | 
[V:2] z8 | 
[V:3] f2ed^c3=B | 
[V:4] z8 | 
[V:5] z8 | 
[V:1] D8 | 
[V:2] z8 | 
[V:3] d4z4 | 
[V:4] d8- | 
[V:5] D,6E,2 | 
[V:1] z8 | 
[V:2] z8 | 
[V:3] d6e2 | 
[V:4] d8- | 
[V:5] F,4G,4 | 
[V:1] D6E2 | 
[V:2] z8 | 
[V:3] f4g4 | 
[V:4] d8 | 
[V:5] F,4B,4- | 
[V:1] F4G4 | 
[V:2] z8 | 
[V:3] f4b4 | 
[V:4] d8- | 
[V:5] B,2A,2G,3F, | 
[V:1] F4B4 | 
[V:2] z8 | 
[V:3] a4g3f | 
[V:4] d8- | 
[V:5] D,4G,,4 | 
[V:1] A4G3F | 
[V:2] z8 | 
[V:3] d4G4- | 
[V:4] d8 | 
[V:5] z4G,,4 | 
[V:1] D6E2 | 
[V:2] z8 | 
[V:3] G2A2B4- | 
[V:4] d8- | 
[V:5] B,,6C,2 | 
[V:1] F2G2A4 | 
[V:2] z8 | 
[V:3] B2A2F4 | 
[V:4] d8- | 
[V:5] D,6C,2 | 
[V:1] G2B4AG | 
[V:2] z8 | 
[V:3] G4B4 | 
[V:4] d8 | 
[V:5] B,,4G,,4 | 
[V:1] F4B4- | 
[V:2] z8 | 
[V:3] A4d4- | 
[V:4] d8- | 
[V:5] D,6E,2 | 
[V:1] B2A2G4- | 
[V:2] z8 | 
[V:3] d2c2B4 | 
[V:4] d8- | 
[V:5] F,4G,4 | 
[V:1] G2^F4E2 | 
[V:2] z8 | 
[V:3] A6G2 | 
[V:4] d8 | 
[V:5] D,8 | 
[V:1] (3G8F2E2 | 
[V:2] z8 | 
[V:3] (3:2:2G8A4 | 
[V:4] d8- | 
[V:5] G,,8- | 
[V:1] (3D6C2B,4 | 
[V:2] z8 | 
[V:3] (3B6A2G4 | 
[V:4] d8- | 
[V:5] G,,8 | 
[V:1] (3A,4B,6C2 | 
[V:2] z8 | 
[V:3] (3F4G6A2 | 
[V:4] d8 | 
[V:5] z8 | 
[V:1] (3D6E2F4 | 
[V:2] z8 | 
[V:3] (3B6c2d4 | 
[V:4] d8- | 
[V:5] G,4(3:2:2F,2D,4 | 
[V:1] (3G4A6G2 | 
[V:2] z8 | 
[V:3] (3G4F4B4- | 
[V:4] d8- | 
[V:5] (3E,4F,4G,4- | 
[V:1] (3:2:4G6^F2F2E2 | 
[V:2] z8 | 
[V:3] (3:2:2B4A8 | 
[V:4] d8 | 
[V:5] (3:2:2G,4D,8 | 
[V:1] G8 |]  
[V:2] z8 |]  
[V:3] G8 |]  
[V:4] z8 |]  
[V:5] G,,8 |]  



